src/assets/icons/services/auto-gas.svg

<?xml version="1.0" encoding="UTF-8" standalone="no"?>
<svg width="30px" height="30px" viewBox="0 0 30 30" version="1.1" xmlns="http://www.w3.org/2000/svg" xmlns:xlink="http://www.w3.org/1999/xlink">
    <!-- Generator: Sketch 50.2 (55047) - http://www.bohemiancoding.com/sketch -->
    <title>icons/30px/negative/auto-gas</title>
    <desc>Created with Sketch.</desc>
    <defs></defs>
    <g id="icons/30px/negative/auto-gas" stroke="none" stroke-width="1" fill="none" fill-rule="evenodd">
        <g id="Group-3-Copy" transform="translate(0.000000, 3.000000)" fill="#E0DED9">
            <path d="M28.2715,24.433625 C28.50525,24.433625 28.7115,24.521125 28.8865,24.697375 C29.06275,24.873625 29.15025,25.087375 29.15025,25.342375 C29.15025,25.576125 29.06275,25.786125 28.8865,25.971125 C28.7115,26.157375 28.50525,26.249875 28.2715,26.249875 L24.5215,26.249875 C24.2865,26.249875 24.0865,26.157375 23.9215,25.971125 C23.75525,25.786125 23.6715,25.576125 23.6715,25.342375 C23.6715,25.087375 23.75525,24.873625 23.9215,24.697375 C24.0865,24.521125 24.2865,24.433625 24.5215,24.433625 L28.2715,24.433625 Z M27.4515,12.436125 C26.55275,11.528625 25.459,11.073625 24.17025,11.073625 C23.76025,11.073625 23.354,11.132375 22.954,11.249875 C22.554,11.367375 22.18775,11.523625 21.85525,11.718625 C21.6015,11.874875 21.36275,12.051125 21.13775,12.246125 C20.91275,12.441125 20.71275,12.656125 20.53775,12.891125 L20.50775,12.919875 C20.449,12.978625 20.39525,13.047375 20.3465,13.124875 C20.29775,13.203625 20.254,13.271125 20.21525,13.329875 C20.21525,13.349875 20.21025,13.364875 20.20025,13.373625 C20.19025,13.383625 20.18525,13.398625 20.18525,13.417375 C20.08775,13.573625 20.00525,13.734875 19.9365,13.901125 C19.86775,14.067375 19.80525,14.248625 19.7465,14.443625 C19.7465,14.462375 19.7415,14.482375 19.7315,14.502375 C19.7215,14.521125 19.7165,14.541125 19.7165,14.561125 C19.69775,14.638625 19.67775,14.712375 19.65775,14.779875 C19.639,14.848625 19.629,14.912375 19.629,14.971125 C19.629,15.009875 19.624,15.038625 19.614,15.058625 C19.604,15.078625 19.60025,15.107375 19.60025,15.146125 C19.58025,15.224875 19.57025,15.312375 19.57025,15.409875 L19.57025,15.703625 L19.57025,15.996125 C19.57025,16.093625 19.58025,16.181125 19.60025,16.259875 C19.60025,16.298625 19.604,16.328625 19.614,16.347375 C19.624,16.367375 19.629,16.396125 19.629,16.436125 C19.629,16.493625 19.639,16.557375 19.65775,16.626125 C19.67775,16.694875 19.69775,16.767375 19.7165,16.846125 C19.7165,16.864875 19.7215,16.884875 19.7315,16.904875 C19.7415,16.923625 19.7465,16.943625 19.7465,16.962375 C19.80525,17.158625 19.86775,17.338625 19.9365,17.504875 C20.00525,17.671125 20.08775,17.832375 20.18525,17.988625 C20.18525,18.007375 20.19025,18.022375 20.20025,18.032375 C20.21025,18.042375 20.21525,18.056125 20.21525,18.076125 C20.254,18.134875 20.29775,18.203625 20.3465,18.281125 C20.39525,18.359875 20.449,18.427375 20.50775,18.486125 L20.53775,18.516125 C20.71275,18.749875 20.91275,18.964875 21.13775,19.159875 C21.36275,19.356125 21.5915,19.531125 21.8265,19.687375 C22.17775,19.882375 22.554,20.038625 22.954,20.156125 C23.354,20.273625 23.76025,20.332375 24.17025,20.332375 C25.459,20.332375 26.55275,19.877375 27.4515,18.969875 C28.349,18.061125 28.799,16.972375 28.799,15.703625 C28.799,14.433625 28.349,13.344875 27.4515,12.436125 Z M20.01025,11.631125 L20.01025,3.106125 C20.01025,3.007375 19.9415,2.891125 19.80525,2.753625 C19.66775,2.617375 19.56025,2.548625 19.48275,2.548625 L15.1465,2.548625 C14.229,2.548625 13.42775,2.866125 12.744,3.501125 C12.06025,4.136125 11.719,4.882375 11.719,5.742375 L11.719,11.631125 L20.01025,11.631125 Z M9.58025,6.239875 L8.55525,9.082375 C8.51525,9.198625 8.43275,9.302375 8.30525,9.389875 C8.179,9.477375 8.0565,9.521125 7.939,9.521125 L7.354,9.521125 L5.74275,14.208625 C5.74275,14.228625 5.73775,14.252375 5.72775,14.282375 C5.71775,14.311125 5.71275,14.336125 5.71275,14.354875 C5.674,14.472375 5.644,14.584875 5.62525,14.692375 C5.60525,14.799875 5.59525,14.912375 5.59525,15.029875 C5.59525,15.614875 5.80025,16.113625 6.2115,16.523625 C6.6215,16.933625 7.119,17.138625 7.70525,17.138625 C8.2915,17.138625 8.799,16.943625 9.229,16.552375 C9.65775,16.162375 9.88275,15.693625 9.90275,15.146125 L9.90275,6.239875 L9.58025,6.239875 Z M28.0515,19.556125 C26.98775,20.619875 25.69275,21.152375 24.17025,21.152375 C23.76025,21.152375 23.359,21.108625 22.969,21.021125 C22.57775,20.932375 22.2065,20.801125 21.85525,20.624875 L21.85525,25.166125 L21.8265,25.194875 C21.84525,25.214875 21.85525,25.234875 21.85525,25.253625 L21.85525,25.342375 C21.85525,25.576125 21.77275,25.786125 21.6065,25.971125 C21.44025,26.157375 21.23025,26.249875 20.9765,26.249875 L0.879,26.249875 C0.644,26.249875 0.439,26.157375 0.264,25.971125 C0.08775,25.786125 0.00025,25.576125 0.00025,25.342375 C0.00025,25.087375 0.08775,24.873625 0.264,24.697375 C0.439,24.521125 0.644,24.433625 0.879,24.433625 L9.90275,24.433625 L9.90275,18.311125 C9.59025,18.524875 9.24775,18.686125 8.8765,18.793625 C8.50525,18.901125 8.11525,18.954875 7.70525,18.954875 C6.6315,18.954875 5.70775,18.574875 4.9365,17.812375 C4.16525,17.051125 3.779,16.123625 3.779,15.029875 C3.779,14.853625 3.794,14.672375 3.82275,14.487375 C3.85275,14.302375 3.8865,14.121125 3.92525,13.944875 C3.92525,13.926125 3.93025,13.896125 3.94025,13.857375 C3.95025,13.818625 3.96525,13.788625 3.984,13.769875 L6.944,5.009875 C7.0215,4.833625 7.139,4.687375 7.29525,4.569875 C7.4515,4.453625 7.6265,4.394875 7.82275,4.394875 L10.10775,4.394875 C10.42025,3.359875 11.04025,2.484875 11.96775,1.772375 C12.89525,1.059875 13.95525,0.703625 15.1465,0.703625 L19.48275,0.703625 C20.08775,0.703625 20.63525,0.952375 21.12275,1.449875 C21.6115,1.948625 21.85525,2.499875 21.85525,3.106125 L21.85525,10.781125 C22.2065,10.604875 22.57775,10.473625 22.969,10.386125 C23.359,10.297375 23.76025,10.253625 24.17025,10.253625 C25.69275,10.253625 26.98775,10.786125 28.0515,11.851125 C29.1165,12.914875 29.649,14.198625 29.649,15.703625 C29.649,17.207375 29.1165,18.491125 28.0515,19.556125 Z" id="Fill-1"></path>
            <path d="M23.6921647,19.5495754 C24.7822166,19.5524073 25.5366906,18.9658172 25.5366906,18.9658172 C28.3695595,16.8680173 26.2169372,14.1134663 26.2169372,14.1134663 L26.4026624,13.7453723 C24.0251559,13.3258124 23.4858815,13.5462212 23.4858815,13.5462212 C22.6120779,14.663929 22.108606,16.0557492 22.108606,16.0557492 L22.598652,16.1072152 C23.263235,17.2954091 22.5762755,17.9857251 22.5762755,17.9857251 C22.1184251,18.4443476 21.5934402,18.386674 21.3120184,18.306879 C20.6879093,17.6186396 20.307625,16.7052351 20.307625,15.703125 C20.307625,13.561875 22.043875,11.825625 24.185125,11.825625 C26.326375,11.825625 28.061375,13.561875 28.061375,15.703125 C28.061375,17.844375 26.326375,19.580625 24.185125,19.580625 C24.0181311,19.580625 23.8536005,19.5700646 23.6921647,19.5495754 Z" id="Combined-Shape"></path>
        </g>
    </g>
</svg>

<?xml version="1.0" encoding="utf-8"?>
<!-- Generator: Adobe Illustrator 16.0.0, SVG Export Plug-In . SVG Version: 6.00 Build 0)  -->
<!DOCTYPE svg PUBLIC "-//W3C//DTD SVG 1.1//EN" "http://www.w3.org/Graphics/SVG/1.1/DTD/svg11.dtd">
<svg version="1.1" id="Layer_1" xmlns="http://www.w3.org/2000/svg" xmlns:xlink="http://www.w3.org/1999/xlink" x="0px" y="0px"
	 width="30px" height="30px" viewBox="0 0 30 30" enable-background="new 0 0 30 30" xml:space="preserve">
<circle fill="#80D3F0" cx="24.185" cy="18.703" r="4.798"/>
<title>icons/30px/negative/auto-gas</title>
<desc>Created with Sketch.</desc>
<g id="icons_x2F_30px_x2F_negative_x2F_auto-gas">
	<g id="Group-3-Copy" transform="translate(0.000000, 3.000000)">
		<path id="Fill-1" fill="#E0DED9" d="M28.271,24.434c0.234,0,0.439,0.088,0.615,0.264s0.264,0.391,0.264,0.645
			c0,0.234-0.088,0.444-0.264,0.629c-0.176,0.187-0.381,0.279-0.615,0.279h-3.75c-0.234,0-0.436-0.093-0.6-0.279
			c-0.166-0.185-0.25-0.395-0.25-0.629c0-0.254,0.084-0.469,0.25-0.645c0.164-0.176,0.365-0.264,0.6-0.264H28.271z M27.451,12.436
			c-0.898-0.908-1.992-1.362-3.281-1.362c-0.41,0-0.816,0.059-1.216,0.176c-0.399,0.117-0.767,0.273-1.099,0.469
			c-0.254,0.156-0.492,0.333-0.718,0.527c-0.226,0.195-0.425,0.41-0.601,0.645l-0.029,0.029c-0.059,0.059-0.112,0.127-0.161,0.205
			s-0.093,0.146-0.132,0.205c0,0.02-0.004,0.035-0.015,0.043c-0.01,0.011-0.015,0.025-0.015,0.045
			c-0.098,0.156-0.18,0.316-0.249,0.483c-0.069,0.166-0.132,0.347-0.19,0.542c0,0.02-0.004,0.039-0.015,0.059
			c-0.01,0.02-0.015,0.039-0.015,0.059c-0.02,0.078-0.039,0.152-0.059,0.219c-0.02,0.069-0.029,0.133-0.029,0.191
			c0,0.039-0.005,0.068-0.015,0.088c-0.011,0.02-0.015,0.049-0.015,0.088c-0.02,0.078-0.029,0.166-0.029,0.264v0.293v0.293
			c0,0.098,0.01,0.186,0.029,0.264c0,0.039,0.004,0.068,0.015,0.088c0.01,0.02,0.015,0.049,0.015,0.088
			c0,0.059,0.01,0.122,0.029,0.19c0.02,0.069,0.039,0.142,0.059,0.22c0,0.02,0.005,0.039,0.015,0.059
			c0.011,0.02,0.015,0.039,0.015,0.059c0.059,0.195,0.121,0.376,0.19,0.542s0.151,0.327,0.249,0.483c0,0.02,0.005,0.034,0.015,0.044
			c0.011,0.011,0.015,0.024,0.015,0.044c0.039,0.059,0.083,0.127,0.132,0.205s0.103,0.146,0.161,0.205l0.029,0.029
			c0.176,0.234,0.375,0.449,0.601,0.645s0.454,0.371,0.688,0.527c0.352,0.195,0.729,0.352,1.128,0.469s0.806,0.176,1.216,0.176
			c1.289,0,2.383-0.455,3.281-1.362c0.898-0.909,1.348-1.997,1.348-3.267S28.35,13.345,27.451,12.436z M20.01,11.631V3.106
			c0-0.099-0.068-0.215-0.205-0.352c-0.137-0.137-0.244-0.205-0.322-0.205h-4.336c-0.917,0-1.719,0.317-2.402,0.952
			c-0.684,0.635-1.025,1.381-1.025,2.241v5.889H20.01z M9.58,6.24L8.555,9.083c-0.04,0.116-0.123,0.22-0.25,0.307
			C8.179,9.478,8.057,9.521,7.939,9.521H7.354l-1.611,4.688c0,0.02-0.005,0.043-0.015,0.073c-0.01,0.028-0.015,0.054-0.015,0.073
			c-0.039,0.117-0.069,0.229-0.088,0.337c-0.02,0.107-0.03,0.22-0.03,0.337c0,0.586,0.205,1.084,0.616,1.494
			c0.41,0.41,0.908,0.615,1.494,0.615c0.586,0,1.094-0.195,1.524-0.586c0.429-0.391,0.654-0.859,0.674-1.406V6.24H9.58z
			 M28.052,19.557c-1.063,1.063-2.358,1.596-3.882,1.596c-0.41,0-0.811-0.044-1.201-0.131c-0.391-0.089-0.762-0.221-1.113-0.396
			v4.541l-0.029,0.029c0.02,0.02,0.029,0.039,0.029,0.059v0.088c0,0.234-0.082,0.444-0.249,0.629
			c-0.166,0.187-0.376,0.279-0.63,0.279H0.879c-0.235,0-0.44-0.093-0.615-0.279C0.088,25.786,0,25.576,0,25.342
			c0-0.254,0.088-0.469,0.264-0.645c0.175-0.176,0.38-0.264,0.615-0.264h9.024v-6.123c-0.312,0.215-0.655,0.375-1.026,0.482
			c-0.371,0.108-0.761,0.162-1.171,0.162c-1.074,0-1.997-0.381-2.769-1.143s-1.158-1.689-1.158-2.783
			c0-0.176,0.015-0.357,0.044-0.542c0.03-0.185,0.064-0.366,0.103-0.542c0-0.02,0.005-0.049,0.015-0.088
			c0.01-0.039,0.025-0.068,0.043-0.088l2.96-8.76c0.078-0.176,0.195-0.322,0.352-0.44c0.156-0.116,0.331-0.175,0.527-0.175h2.285
			c0.312-1.035,0.932-1.91,1.86-2.623c0.928-0.713,1.987-1.069,3.179-1.069h4.336c0.605,0,1.152,0.249,1.641,0.746
			c0.488,0.499,0.732,1.05,0.732,1.656v7.675c0.352-0.176,0.723-0.308,1.113-0.395c0.391-0.089,0.791-0.132,1.201-0.132
			c1.523,0,2.818,0.532,3.882,1.597c1.065,1.064,1.597,2.348,1.597,3.852S29.117,18.491,28.052,19.557z"/>
		<path id="Combined-Shape" fill="#00BA61" d="M23.692,19.55c1.09,0.003,1.845-0.584,1.845-0.584c2.832-2.098,0.68-4.853,0.68-4.853
			l0.186-0.368c-2.377-0.419-2.916-0.198-2.916-0.198c-0.874,1.117-1.378,2.509-1.378,2.509l0.49,0.052
			c0.665,1.188-0.022,1.879-0.022,1.879c-0.458,0.458-0.982,0.4-1.264,0.32c-0.625-0.688-1.005-1.602-1.005-2.604
			c0-2.141,1.736-3.877,3.878-3.877c2.141,0,3.876,1.737,3.876,3.877s-1.735,3.877-3.876,3.877
			C24.018,19.58,23.854,19.57,23.692,19.55z"/>
	</g>
</g>
</svg>
